X: 1
T: The Swallow's Nest
R: reel
M: 4/4
L: 1/8
K: Gmaj
|~G3A GEDE|G2BG AedB|A~E3 ~A2Bd|e2fa gedB|
~G3A GEDE|G2Bd efge|d~G3 EGDG|1FGAF GcBA:|2FGAF G2 z2|:
e~g3 edBA|GEDE G2Bd|eaag aged|~B3d e3g|
d~g3 agba|aged e2ge|d~G3 EGDG|FGAF G2 z2:|


Tune 743	Setting 13830

